X: 31698
T: Passagers Nocturnes
R: reel
M: 4/4
K: Bminor
d3c BF~F2|ABcA ABBF|(3Bcd dc BDEF|ABcA ABBc|
d3c BF~F2|ABcA ABBc|d3c BF~F2|ABcA ABAF||
FGFG EAcd|effg fd (3efg|a3a fefg|fdcd ABAF|
FGFG EDAc|defg fd (3efg|a3b gfdg|fdcd ABBc||

